dist/img/logo/odak.svg

<svg width="60" height="60" viewBox="0 0 60 60" fill="none" xmlns="http://www.w3.org/2000/svg">
<g clip-path="url(#clip0_52_964)">
<path d="M59.2308 30.0001C59.2308 13.8563 46.1438 0.769287 30.0001 0.769287C13.8563 0.769287 0.769287 13.8563 0.769287 30.0001C0.769287 46.1438 13.8563 59.2308 30.0001 59.2308C46.1438 59.2308 59.2308 46.1438 59.2308 30.0001Z" stroke="#3271B2" stroke-width="2"/>
<path d="M47.6001 40.2155C47.6001 39.8078 47.477 39.4078 47.2539 39.0616C47.8385 38.6155 48.1462 37.877 48.0462 37.1385C47.9539 36.3924 47.4693 35.7616 46.777 35.4847C47.077 34.8385 47.0309 34.0847 46.6539 33.4847C46.277 32.8847 45.6155 32.5232 44.9155 32.5232H39.1462L39.4693 32.2078C40.3309 31.3462 40.3539 29.9385 39.5001 29.0693C38.6539 28.2001 37.2616 28.1924 36.4001 29.0462L30.5847 33.9309H30.4847L27.3539 30.1462L27.3616 29.8462L30.4155 27.3078L29.5462 26.277L24.2385 30.6924C23.9078 31.0309 23.3309 31.0693 23.0001 30.7385C22.6693 30.4078 22.6616 29.8693 22.9924 29.5385L25.6847 26.8924H16.6078C16.2155 26.8924 15.8924 26.5693 15.8924 26.1693C15.8924 25.777 16.2155 25.4539 16.6078 25.4539H18.8001V24.077H15.5155C15.1232 24.077 14.8001 23.7616 14.8001 23.3616C14.8001 22.9616 15.1232 22.6385 15.5155 22.6385H18.8001V21.2693H15.9847C15.5847 21.2693 15.2693 20.9462 15.2693 20.5539C15.2693 20.1539 15.5847 19.8309 15.9847 19.8309H18.8001V18.4616H16.6078C16.2155 18.4616 15.8924 18.1385 15.8924 17.7462C15.8924 17.3462 16.2155 17.0232 16.6078 17.0232H25.9001L29.6539 18.8309H31.977V17.4693H29.9616L26.2078 15.6616H16.6078C15.8616 15.6616 15.177 16.0693 14.8078 16.7232C14.4385 17.377 14.4539 18.177 14.8462 18.8232C14.3847 19.1232 14.0693 19.6001 13.9616 20.1462C13.8539 20.6847 13.9616 21.2462 14.2693 21.7078C13.677 22.1616 13.3693 22.8924 13.4693 23.6385C13.5693 24.377 14.0539 25.0078 14.7385 25.2847C14.4385 25.9309 14.4847 26.6847 14.8616 27.2847C15.2462 27.8847 15.9001 28.2462 16.6078 28.2462H18.0539V31.1232L16.2616 34.9078V44.577C16.2616 45.3309 16.6616 46.0232 17.3078 46.3924C17.9539 46.7616 18.7539 46.7462 19.3924 46.3539C19.6924 46.8155 20.1693 47.1385 20.7001 47.2462C21.2385 47.3539 21.8001 47.2385 22.2539 46.9309C22.7001 47.5309 23.4309 47.8385 24.1693 47.7385C24.9001 47.6385 25.5309 47.1539 25.8078 46.4616C26.4462 46.7616 27.1924 46.7155 27.7924 46.3309C28.3847 45.9539 28.7462 45.2924 28.7462 44.577V43.3001H31.5539L35.3155 45.1078H44.9155C45.6539 45.1078 46.3462 44.7001 46.7078 44.0462C47.077 43.3924 47.0616 42.5924 46.677 41.9539C47.2539 41.5616 47.6001 40.9155 47.6001 40.2155ZM27.4001 35.4309V37.1309L27.3847 43.3001L27.4001 44.577C27.4001 44.977 27.077 45.3001 26.6847 45.3001C26.2924 45.3001 25.9693 44.977 25.9693 44.577V42.3616H24.6078V45.677C24.6078 46.077 24.2924 46.4001 23.9001 46.4001C23.5001 46.4001 23.1847 46.077 23.1847 45.677V42.3616H21.8232V45.2078C21.8232 45.6001 21.5001 45.9232 21.1078 45.9232C20.7155 45.9232 20.3924 45.6001 20.3924 45.2078V42.3616H19.0385V44.577C19.0385 44.977 18.7155 45.3001 18.3232 45.3001C17.9309 45.3001 17.6078 44.977 17.6078 44.577V35.2155L19.4001 31.4309V28.277H22.3385L22.0462 28.5616C21.1847 29.4232 21.1693 30.8309 22.0155 31.7001C22.8693 32.5693 24.2616 32.577 25.1232 31.7232L26.177 30.8385L31.177 36.8847C31.5078 37.2232 31.5462 37.8078 31.2155 38.1385C30.8924 38.4693 30.3539 38.4693 30.0232 38.1385L27.4001 35.4309ZM46.0078 38.1309H42.7155V39.5001H45.5385C45.9309 39.5001 46.2462 39.8232 46.2462 40.2155C46.2462 40.6155 45.9309 40.9385 45.5385 40.9385H42.7155V42.3078H44.9155C45.3078 42.3078 45.6232 42.6309 45.6232 43.0309C45.6232 43.4232 45.3078 43.7462 44.9155 43.7462H35.6155L31.8616 41.9385H28.7462V38.7693L29.0616 39.0924C29.9155 39.9616 31.3078 39.977 32.1693 39.1232C33.0309 38.2693 33.0462 36.8693 32.1924 35.9924L31.3924 35.0232L37.2847 30.077C37.6078 29.7385 38.1924 29.7001 38.5232 30.0309C38.8539 30.3616 38.8539 30.9001 38.5232 31.2385L35.8385 33.877H44.9155C45.3078 33.877 45.6232 34.2001 45.6232 34.6001C45.6232 35.0001 45.3078 35.3155 44.9155 35.3155H42.7155V36.6924H46.0078C46.4001 36.6924 46.7155 37.0155 46.7155 37.4078C46.7155 37.8078 46.4001 38.1309 46.0078 38.1309Z" fill="#00AEEF"/>
<path d="M43.3923 14.1845C43.0307 14.1845 42.6769 14.2845 42.3692 14.4768C42.0769 14.0384 41.623 13.7307 41.1077 13.6307C40.5923 13.523 40.0615 13.6307 39.623 13.923C39.1923 13.3538 38.4923 13.0615 37.7846 13.1615C37.0769 13.2538 36.4769 13.7153 36.2154 14.3768C35.6 14.0845 34.8769 14.1307 34.3077 14.4922C33.7384 14.8615 33.3923 15.4922 33.3923 16.1691V21.6999L33.0923 21.3922C32.2769 20.5615 30.9384 20.5461 30.1077 21.3615C29.2769 22.1768 29.2692 23.5076 30.0846 24.3384L34.2384 29.3153L35.2538 28.5153L31.0615 23.4922C30.7461 23.1768 30.7 22.6153 31.023 22.2999C31.3384 21.9845 31.8461 21.9845 32.1692 22.2999L34.6846 24.8768V16.1691C34.6846 15.7922 34.9923 15.4845 35.3692 15.4845C35.7461 15.4845 36.0538 15.7922 36.0538 16.1691V18.2768H37.3615V15.123C37.3615 14.7384 37.6692 14.4384 38.0461 14.4384C38.423 14.4384 38.7307 14.7384 38.7307 15.123V18.2768H40.0384V15.5691C40.0384 15.1922 40.3384 14.8845 40.723 14.8845C41.1 14.8845 41.4077 15.1922 41.4077 15.5691V18.2768H42.7077V16.1691C42.7077 15.7922 43.0154 15.4845 43.3923 15.4845C43.7769 15.4845 44.0769 15.7922 44.0769 16.1691V25.0845L42.3615 28.6922V30.8461H43.6538V28.9845L45.3769 25.3768V16.1691C45.3769 15.0768 44.4846 14.1922 43.3923 14.1845Z" fill="#E0027A"/>
</g>
<defs>
<clipPath id="clip0_52_964">
<rect width="60" height="60" fill="white"/>
</clipPath>
</defs>
</svg>

<svg width="60" height="60" viewBox="0 0 60 60" fill="none" xmlns="http://www.w3.org/2000/svg"><g clip-path="url(#clip0_52_964)"><path d="M59.23 30C59.23 13.856 46.145.77 30 .77S.77 13.855.77 30 13.855 59.23 30 59.23 59.23 46.145 59.23 30z" stroke="#3271B2" stroke-width="2"/><path d="M47.6 40.215c0-.407-.123-.807-.346-1.153a2.077 2.077 0 00.792-1.923 2.045 2.045 0 00-1.269-1.654 2.1 2.1 0 00-.123-2 2.058 2.058 0 00-1.739-.962h-5.769l.323-.315c.862-.862.885-2.27.031-3.139a2.182 2.182 0 00-3.1-.023l-5.815 4.885h-.1l-3.131-3.785.008-.3 3.054-2.538-.87-1.031-5.308 4.415c-.33.339-.907.377-1.238.046a.85.85 0 01-.008-1.2l2.693-2.646h-9.077a.719.719 0 010-1.438H18.8v-1.377h-3.285a.714.714 0 01-.715-.715c0-.4.323-.723.715-.723H18.8v-1.37h-2.815a.714.714 0 01-.716-.715c0-.4.316-.723.716-.723H18.8v-1.37h-2.192a.719.719 0 010-1.438H25.9l3.754 1.808h2.323v-1.362h-2.015l-3.754-1.807h-9.6a2.07 2.07 0 00-1.8 1.061 2.074 2.074 0 00.038 2.1 2.04 2.04 0 00-.884 1.323c-.108.539 0 1.1.307 1.562a2.078 2.078 0 00-.8 1.93c.1.739.585 1.37 1.27 1.647a2.1 2.1 0 00.123 2 2.07 2.07 0 001.746.961h1.446v2.877l-1.792 3.785v9.669c0 .754.4 1.446 1.046 1.815.646.37 1.446.354 2.084-.038.3.462.777.785 1.308.892.538.108 1.1-.008 1.554-.315a2.04 2.04 0 001.915.808 2.069 2.069 0 001.639-1.277c.638.3 1.384.253 1.984-.131a2.076 2.076 0 00.954-1.754V43.3h2.808l3.762 1.808h9.6c.738 0 1.43-.408 1.792-1.062a2.077 2.077 0 00-.031-2.092 2.098 2.098 0 00.923-1.739zm-20.2-4.784v1.7l-.015 6.17.015 1.276a.72.72 0 01-.715.723.72.72 0 01-.716-.723v-2.215h-1.361v3.315c0 .4-.316.723-.708.723a.716.716 0 01-.715-.723v-3.315h-1.362v2.846a.719.719 0 01-.715.715.719.719 0 01-.716-.715v-2.846h-1.354v2.215a.72.72 0 01-.715.723.72.72 0 01-.715-.723v-9.361L19.4 31.43v-3.154h2.939l-.293.285a2.243 2.243 0 00-.03 3.138 2.19 2.19 0 003.107.023l1.054-.884 5 6.046c.33.338.37.923.038 1.254a.84.84 0 01-1.192 0L27.4 35.43zm18.608 2.7h-3.293v1.37h2.823c.393 0 .708.322.708.715 0 .4-.315.722-.708.722h-2.822v1.37h2.2c.392 0 .707.323.707.723a.712.712 0 01-.707.715h-9.3l-3.754-1.808h-3.116V38.77l.316.323a2.19 2.19 0 003.107.031 2.226 2.226 0 00.023-3.13l-.8-.97 5.893-4.946c.323-.339.907-.377 1.238-.046.33.33.33.87 0 1.207l-2.684 2.639h9.077c.392 0 .707.323.707.723 0 .4-.315.715-.707.715h-2.2v1.377h3.292c.392 0 .707.324.707.716 0 .4-.315.723-.707.723z" fill="#00AEEF"/><path d="M43.392 14.184c-.361 0-.715.1-1.023.293a1.974 1.974 0 00-1.261-.846 1.95 1.95 0 00-1.485.292 1.958 1.958 0 00-1.838-.761 1.951 1.951 0 00-1.57 1.215 1.98 1.98 0 00-1.907.115c-.57.37-.916 1-.916 1.677v5.53l-.3-.307a2.113 2.113 0 00-2.984-.03 2.103 2.103 0 00-.023 2.976l4.153 4.977 1.016-.8-4.192-5.023c-.316-.315-.362-.877-.039-1.192a.812.812 0 011.146 0l2.516 2.577v-8.708a.685.685 0 011.369 0v2.108h1.307v-3.154c0-.385.308-.685.685-.685.377 0 .685.3.685.685v3.154h1.307v-2.708c0-.377.3-.685.685-.685.377 0 .685.308.685.685v2.708h1.3v-2.108a.685.685 0 011.369 0v8.915l-1.715 3.608v2.154h1.292v-1.861l1.723-3.608v-9.208a1.994 1.994 0 00-1.985-1.985z" fill="#E0027A"/></g><defs><clipPath id="clip0_52_964"><rect width="60" height="60" fill="#fff"/></clipPath></defs></svg>
